apps/spreadsheeteditor/main/resources/img/toolbar/2.5x/big/btn-custom-sort.svg

<svg width="28" height="28" viewBox="0 0 28 28" fill="none" xmlns="http://www.w3.org/2000/svg">
<path fill-rule="evenodd" clip-rule="evenodd" d="M23 5H5V23H23V5ZM6 6V7H22V6H6ZM22 22V8H6V22H22ZM11 20.004H10L10 11.7111L8.70711 13.004L8 12.2969L10.5 9.79688L10.8787 10.1678L13 12.2891L12.2929 12.9962L11 11.7034L11 20.004ZM17 10H18V18.2929L19.2929 17L20 17.7071L17.5 20.2071L17.1213 19.8362L15 17.7149L15.7071 17.0078L17 18.3006V10Z" fill="black"/>
</svg>

<svg xmlns="http://www.w3.org/2000/svg" width="28" height="28" fill="none"><path fill="#000" d="M18 18.293 19.293 17l.707.707-2.5 2.5-.379-.371L15 17.715l.707-.707L17 18.3V10h1v8.293Zm-7.121-8.125L13 12.289l-.707.707L11 11.703v8.3h-1v-8.292l-1.293 1.293L8 12.297l2.5-2.5.379.371Z"/><path fill="#000" d="M23 23H5V5h18v18ZM6 8v14h16V8H6Zm0-2v1h16V6H6Z"/></svg>
